!!!OTL: 298. Aufmunterung zur Weisheit und Tugend.
!!!COM: Volksweise
!!!ODT: 1778
!!!ARE: Europa, Mitteleuropa, Deutschland
!!!SCT: B0298
!!!TXL: @@DE
!!!YEM: Copyright 1995, estate of Helmut Schaffrath.
**kern	**text
*ICvox	*
*Ivox	*
*clefG2	*
*M3/4	*
*k[f#]	*
*G:	*
=1	=1
!LO:TX:a:t=Ruhig heiter.	!
{4g	Laßt
4b	uns,
8ddL	ihr
8bJ	.
=2	=2
(4a	Brü-
4f#)	.
4d}	-der,
=3	=3
{4g	Weis-
8bL	-heit
8gJ	.
8ddL	er-
8bJ	.
=4	=4
2a	-höhn!
4r}	.
=5	=5
{4cc	Sin-
4cc	-get
4cc	ihr
=6	=6
(4.b/	Lie-
8a)	.
4g}	-der,
=7	=7
{4a	feu-
4g	-rig
4f#	und
=8	=8
(<8gL	ſchön
8a	.
8b	.
8ccJ	.
4dd)}	,
=9	=9
{4ee	ſin-
4ee	-get
4ee	ihr
=10	=10
(4.dd	Lie-
8cc)	.
4b}	-der,
=11	=11
{8ddL	feu-
8ccJ	.
4b/	-rig
4a	und
=12	=12
2g	ſchön!
4r}	.
==	==
!!!AGN: Stimmungs - Lied, Freude, Freundschaft, Freimaurer - Gesang
!!!GTL: Lieder der Freude und Geseligkeit
!!!ONB: ESAC (Essen Associative Code) Database: BOEHME
!!!AMT: simple triple
!!!AIN: vox
!!!EED: Helmut Schaffrath
!!!EEV: 1.0
!!!RDF**kern: < = below
!!@@COMMENT:"Freimaurerlied vor 1778 von Wolfg. Heribert v. Dalberg (ſ. Nachweis bei Hoffmann,
!!volksthümliche Lieder Nr. 612. ) - Das Lied mit dieſer Weiſe ſteht ʒuerſt in: "Freymäurer-Lieder
!!mit Melodien ʒum Gebrauch der Großen Landes Loge der Freymäuter der in Deutſchland conſti-
!!tuirten Logen. Hamburg 1778 S. 16."
!!@@END:
!!!URL-scan: https://archive.org/details/BoehmeVtLieder1895/page/n249/mode/2up
!!!ENC: Anna Maria Matuszewska
!!!EEV: 2024/04/07
*-	*-
